icons/feathersjs/feathersjs-original.svg

<svg xmlns="http://www.w3.org/2000/svg" viewBox="0 0 128 128" fill="#333">
    <path d="M 64 4.550781 C 96.832031 4.550781 123.449219 31.167969 123.449219 64 C 123.449219 96.832031 96.832031 123.449219 64 123.449219 C 31.167969 123.449219 4.550781 96.832031 4.550781 64 C 4.550781 31.167969 31.167969 4.550781 64 4.550781 M 64 0 C 28.710938 0 0 28.710938 0 64 C 0 99.289062 28.710938 128 64 128 C 99.289062 128 128 99.289062 128 64 C 128 28.710938 99.289062 0 64 0 M 74.414062 12.761719 C 69.199219 11.8125 56.589844 30.964844 52.417969 42.628906 C 52.101562 43.511719 51.375 46.753906 51.375 47.605469 C 51.375 47.605469 54.640625 54.632812 55.546875 56.28125 C 54.03125 55.492188 50.886719 49.402344 50.886719 49.402344 C 49.367188 52.296875 47.914062 65.574219 48.386719 68.039062 C 48.386719 68.039062 51.769531 73.070312 53.082031 74.328125 C 51.28125 73.726562 48.246094 69.652344 48.246094 69.652344 C 47.675781 71.40625 47.789062 75.054688 48.054688 76.289062 C 50.332031 79.605469 53.367188 79.984375 53.367188 79.984375 C 53.367188 79.984375 50.046875 113.078125 55.074219 115.542969 C 58.203125 114.878906 58.960938 78.5625 58.960938 78.5625 C 58.960938 78.5625 62.753906 78.847656 63.605469 77.898438 C 65.535156 76.574219 70.019531 62.789062 70.085938 60.800781 C 70.085938 60.800781 64.878906 61.773438 62.339844 62.761719 C 64.253906 60.859375 70.367188 59.585938 70.367188 59.585938 C 72.023438 57.59375 75.511719 44.0625 75.863281 39.890625 C 75.949219 38.84375 76.15625 37.5625 75.996094 35.691406 C 75.996094 35.691406 71.027344 36.777344 69.988281 36.402344 C 71.042969 36.285156 76.121094 34.332031 76.121094 34.332031 C 77.023438 26.226562 77.300781 13.285156 74.414062 12.761719 Z M 56.226562 98.609375 C 55.828125 108.355469 55.578125 111.109375 55.167969 113.40625 C 54.976562 113.835938 54.789062 113.90625 54.597656 113.359375 C 52.859375 105.363281 52.988281 45.140625 72.804688 17.738281 C 61.277344 38.785156 56.035156 79.171875 56.226562 98.609375 Z M 56.226562 98.609375 "/>
</svg>

<svg xmlns="http://www.w3.org/2000/svg" viewBox="0 0 128 128" fill="#333"><path d="M64 4.55c32.832 0 59.45 26.618 59.45 59.45 0 32.832-26.618 59.45-59.45 59.45-32.832 0-59.45-26.618-59.45-59.45C4.55 31.168 31.169 4.55 64 4.55M64 0C28.71 0 0 28.71 0 64s28.71 64 64 64 64-28.71 64-64S99.29 0 64 0m10.414 12.762c-5.215-.95-17.824 18.203-21.996 29.867-.316.883-1.043 4.125-1.043 4.976 0 0 3.266 7.028 4.172 8.676-1.516-.789-4.66-6.879-4.66-6.879-1.52 2.895-2.973 16.172-2.5 18.637 0 0 3.383 5.031 4.695 6.29-1.8-.602-4.836-4.677-4.836-4.677-.57 1.754-.457 5.403-.191 6.637 2.277 3.316 5.312 3.695 5.312 3.695s-3.32 33.094 1.707 35.559c3.13-.664 3.887-36.98 3.887-36.98s3.793.285 4.644-.665c1.93-1.324 6.415-15.109 6.48-17.097 0 0-5.206.972-7.745 1.96 1.914-1.902 8.027-3.175 8.027-3.175 1.656-1.992 5.145-15.523 5.496-19.695.086-1.047.293-2.328.133-4.2 0 0-4.969 1.086-6.008.711 1.055-.117 6.133-2.07 6.133-2.07.902-8.105 1.18-21.047-1.707-21.57zM56.227 98.609c-.399 9.746-.649 12.5-1.059 14.797-.191.43-.379.5-.57-.047-1.739-7.996-1.61-68.218 18.207-95.62-11.528 21.046-16.77 61.433-16.578 80.87zm0 0"/></svg>
